packages/icons/src/SVG/pdf.svg

<svg width="12" height="12" viewBox="0 0 12 12" fill="none" xmlns="http://www.w3.org/2000/svg">
<path fill-rule="evenodd" clip-rule="evenodd" d="M1 0V6H2V1H7V4H10V6H11V2L9 0H1ZM10 3V2.41421L8.58579 1H8V3H10Z" fill="#4C505B"/>
<path fill-rule="evenodd" clip-rule="evenodd" d="M2.45264 7.00293C3.09749 7.00293 3.56803 7.13509 3.86426 7.39941C4.16048 7.66374 4.30859 8.03402 4.30859 8.51025C4.30859 8.72673 4.27441 8.93294 4.20605 9.12891C4.13997 9.32259 4.0306 9.49463 3.87793 9.64502C3.72526 9.79313 3.5236 9.91048 3.27295 9.99707C3.02458 10.0837 2.7181 10.127 2.35352 10.127H1.82031V12H1V7.00293H2.45264ZM2.39795 7.68311H1.82031V9.44336H2.26807C2.52555 9.44336 2.7443 9.41374 2.92432 9.35449C3.10433 9.29297 3.24105 9.19613 3.33447 9.06396C3.4279 8.9318 3.47461 8.75749 3.47461 8.54102C3.47461 8.25163 3.38688 8.0363 3.21143 7.89502C3.03825 7.75374 2.76709 7.68311 2.39795 7.68311Z" fill="#4C505B"/>
<path fill-rule="evenodd" clip-rule="evenodd" d="M8.77002 9.45361C8.77002 10.0164 8.6652 10.487 8.45557 10.8652C8.24593 11.2412 7.94173 11.5249 7.54297 11.7163C7.14421 11.9054 6.66341 12 6.10059 12H4.71289V7.00293H6.25098C6.76823 7.00293 7.21484 7.09635 7.59082 7.2832C7.9668 7.46777 8.25732 7.74235 8.4624 8.10693C8.66748 8.46924 8.77002 8.91813 8.77002 9.45361ZM7.91553 9.47754C7.91553 9.06738 7.85059 8.73014 7.7207 8.46582C7.5931 8.2015 7.40397 8.00553 7.15332 7.87793C6.90495 7.74805 6.59847 7.68311 6.23389 7.68311H5.5332V11.313H6.11426C6.7181 11.313 7.16927 11.1592 7.46777 10.8516C7.76628 10.5439 7.91553 10.0859 7.91553 9.47754Z" fill="#4C505B"/>
<path d="M9.17676 12H9.99023V9.93896H11.8701V9.25195H9.99023V7.69336H12V7.00293H9.17676V12Z" fill="#4C505B"/>
</svg>

<!-- Generated by IcoMoon.io -->
<svg version="1.1" xmlns="http://www.w3.org/2000/svg" width="12" height="12" viewBox="0 0 12 12">
<title>pdf</title>
<path d="M8.707 0h-7.707v6h1v-5h5v3h3v2h1v-3.707l-2.293-2.293zM8 1h0.293l1.707 1.707v0.293h-2v-2z"></path>
<path d="M2.453 7.003c0.645 0 1.115 0.132 1.412 0.396s0.444 0.635 0.444 1.111c0 0.216-0.034 0.423-0.103 0.619-0.066 0.194-0.175 0.366-0.328 0.516-0.153 0.148-0.354 0.265-0.605 0.352-0.248 0.087-0.555 0.13-0.919 0.13h-0.533v1.873h-0.82v-4.997h1.453zM2.398 7.683h-0.578v1.76h0.448c0.257 0 0.476-0.030 0.656-0.089 0.18-0.062 0.317-0.158 0.41-0.291s0.14-0.306 0.14-0.523c0-0.289-0.088-0.505-0.263-0.646-0.173-0.141-0.444-0.212-0.813-0.212z"></path>
<path d="M8.77 9.454c0 0.563-0.105 1.033-0.314 1.412-0.21 0.376-0.514 0.66-0.913 0.851-0.399 0.189-0.88 0.284-1.442 0.284h-1.388v-4.997h1.538c0.517 0 0.964 0.093 1.34 0.28 0.376 0.185 0.667 0.459 0.872 0.824 0.205 0.362 0.308 0.811 0.308 1.347zM7.916 9.478c0-0.41-0.065-0.747-0.195-1.012-0.128-0.264-0.317-0.46-0.567-0.588-0.248-0.13-0.555-0.195-0.919-0.195h-0.701v3.63h0.581c0.604 0 1.055-0.154 1.354-0.461s0.448-0.766 0.448-1.374z"></path>
<path d="M9.177 12h0.813v-2.061h1.88v-0.687h-1.88v-1.559h2.010v-0.69h-2.823v4.997z"></path>
</svg>
